archcraft-icons-qogir/files/Qogir/32/apps/preferences-system-network-share-windows.svg

<svg width="32" height="32" version="1.1" xmlns="http://www.w3.org/2000/svg" xmlns:xlink="http://www.w3.org/1999/xlink">
 <rect x="1" y="1" width="30" height="30" rx="3" ry="3" fill="#1d1f20" stroke-width=".57692"/>
 <rect x="2" y="2" width="28" height="28" rx="2" ry="2" fill="#343739" stroke-width=".53846"/>
 <path d="m5 17h10v10h-10zm12 0h10v10h-10zm0-12h10v10h-10zm-12 0h10v10h-10z" fill="#38aaeb" stroke-width=".5"/>
 <path d="m22 7v1h-12a1.99 1.99 0 0 0-1.566 0.756 1.998 1.998 0 0 0-0.434 1.244v5a2.002 2.002 0 0 0 0.03 0.34 2.001 2.001 0 0 0 0.187 0.566 2 2 0 0 0 1.783 1.094h11a1.003 1.003 0 0 1 0.49 0.13 1.002 1.002 0 0 1 0.194 0.142 0.996 0.996 0 0 1 0.316 0.728v3a1 1 0 0 1-1 1h-11v-1l-3 2 3 2v-1h12a1.99 1.99 0 0 0 1.436-0.607 2.002 2.002 0 0 0 0.492-0.858 2.001 2.001 0 0 0 0.072-0.535v-5a2.002 2.002 0 0 0-0.03-0.34 2.001 2.001 0 0 0-0.187-0.566 2 2 0 0 0-1.783-1.094h-11a1.003 1.003 0 0 1-0.49-0.13 1.002 1.002 0 0 1-0.194-0.142 0.996 0.996 0 0 1-0.316-0.728v-3a1 1 0 0 1 1-1h11v1l3-2z" fill="#fff" stroke-width=".5"/>
</svg>

<svg xmlns="http://www.w3.org/2000/svg" width="32" height="32"><rect width="30" height="30" x="1" y="1" fill="#1d1f20" rx="3" ry="3"/><rect width="28" height="28" x="2" y="2" fill="#343739" rx="2" ry="2"/><path fill="#38aaeb" d="M5 17h10v10H5zm12 0h10v10H17zm0-12h10v10H17zM5 5h10v10H5z"/><path fill="#fff" d="M22 7v1H10a1.99 1.99 0 0 0-1.566.756A1.998 1.998 0 0 0 8 10v5a2.002 2.002 0 0 0 .03.34 2.001 2.001 0 0 0 .187.566A2 2 0 0 0 10 17h11a1.003 1.003 0 0 1 .49.13 1.002 1.002 0 0 1 .194.142A.996.996 0 0 1 22 18v3a1 1 0 0 1-1 1H10v-1l-3 2 3 2v-1h12a1.99 1.99 0 0 0 1.436-.607 2.002 2.002 0 0 0 .492-.858A2.001 2.001 0 0 0 24 22v-5a2.002 2.002 0 0 0-.03-.34 2.001 2.001 0 0 0-.187-.566A2 2 0 0 0 22 15H11a1.003 1.003 0 0 1-.49-.13 1.002 1.002 0 0 1-.194-.142A.996.996 0 0 1 10 14v-3a1 1 0 0 1 1-1h11v1l3-2z"/></svg>
